public/new/iocn4.svg

<svg fill="none" height="80" viewBox="0 0 80 80" width="80" xmlns="http://www.w3.org/2000/svg" xmlns:xlink="http://www.w3.org/1999/xlink"><linearGradient id="a"><stop offset="0" stop-color="#34c796"/><stop offset="1" stop-color="#0b7a55"/></linearGradient><linearGradient id="b" gradientUnits="userSpaceOnUse" x1="40" x2="40" xlink:href="#a" y1="0" y2="80"/><linearGradient id="c" gradientUnits="userSpaceOnUse" x1="33.5711" x2="33.5711" xlink:href="#a" y1="20.7627" y2="39.052"/><linearGradient id="d" gradientUnits="userSpaceOnUse" x1="55.462" x2="55.462" xlink:href="#a" y1="43.8662" y2="47.7329"/><linearGradient id="e" gradientUnits="userSpaceOnUse" x1="39.9995" x2="39.9995" xlink:href="#a" y1="31.7832" y2="59.3332"/><circle cx="40" cy="40" r="39" stroke="url(#b)" stroke-width="2"/><path d="m45.5095 24.436v7.3467h-2.9v-7.3467c0-.522-.464-.7733-.7734-.7733-.0966 0-.1933.0193-.29.058l-15.3313 5.7807c-1.0247.3866-1.682 1.3533-1.682 2.4553v1.2953c-1.7593 1.3147-2.9 3.422-2.9 5.8v-7.0953c0-2.3007 1.4113-4.35 3.5573-5.162l15.3507-5.8c.4253-.1547.87-.232 1.2953-.232 1.9334 0 3.6734 1.566 3.6734 3.6733z" fill="url(#c)"/><path d="m58.3665 44.8329v1.9333c0 .522-.406.9473-.9474.9667h-2.8226c-1.0247 0-1.9527-.754-2.03-1.7594-.058-.5993.174-1.16.5606-1.5466.348-.3674.8314-.5607 1.3534-.5607h2.9193c.5607.0193.9667.4447.9667.9667z" fill="url(#d)"/><path d="m54.4608 41.8365h1.972c1.0633 0 1.9333-.87 1.9333-1.9333v-.8507c0-4.002-3.2673-7.2693-7.2693-7.2693h-22.1947c-1.6433 0-3.1513.5413-4.3693 1.4693-1.7593 1.3147-2.9 3.422-2.9 5.8v13.0114c0 4.002 3.2673 7.2693 7.2693 7.2693h22.1947c4.002 0 7.2693-3.2673 7.2693-7.2693v-.3674c0-1.0633-.87-1.9333-1.9333-1.9333h-1.682c-1.856 0-3.6347-1.1407-4.118-2.9387-.406-1.4693.0773-2.8806 1.044-3.828.7153-.7346 1.7013-1.16 2.784-1.16zm-10.5947-.3866h-13.5333c-.7927 0-1.45-.6574-1.45-1.45 0-.7927.6573-1.45 1.45-1.45h13.5333c.7927 0 1.45.6573 1.45 1.45 0 .7926-.6573 1.45-1.45 1.45z" fill="url(#e)"/></svg>

<svg width="80" height="80" viewBox="0 0 80 80" fill="none" xmlns="http://www.w3.org/2000/svg">
<circle cx="40" cy="40" r="39" stroke="url(#paint0_linear_206_2306)" stroke-width="2"/>
<path d="M45.5095 24.436V31.7827H42.6095V24.436C42.6095 23.914 42.1455 23.6627 41.8361 23.6627C41.7395 23.6627 41.6428 23.682 41.5461 23.7207L26.2148 29.5014C25.1901 29.888 24.5328 30.8547 24.5328 31.9567V33.252C22.7735 34.5667 21.6328 36.674 21.6328 39.052V31.9567C21.6328 29.656 23.0441 27.6067 25.1901 26.7947L40.5408 20.9947C40.9661 20.84 41.4108 20.7627 41.8361 20.7627C43.7695 20.7627 45.5095 22.3287 45.5095 24.436Z" fill="url(#paint1_linear_206_2306)"/>
<path d="M58.3665 44.8329V46.7662C58.3665 47.2882 57.9605 47.7135 57.4191 47.7329H54.5965C53.5718 47.7329 52.6438 46.9789 52.5665 45.9735C52.5085 45.3742 52.7405 44.8135 53.1271 44.4269C53.4751 44.0595 53.9585 43.8662 54.4805 43.8662H57.3998C57.9605 43.8855 58.3665 44.3109 58.3665 44.8329Z" fill="url(#paint2_linear_206_2306)"/>
<path d="M54.4608 41.8365H56.4328C57.4961 41.8365 58.3661 40.9665 58.3661 39.9032V39.0525C58.3661 35.0505 55.0988 31.7832 51.0968 31.7832H28.9021C27.2588 31.7832 25.7508 32.3245 24.5328 33.2525C22.7735 34.5672 21.6328 36.6745 21.6328 39.0525V52.0639C21.6328 56.0659 24.9001 59.3332 28.9021 59.3332H51.0968C55.0988 59.3332 58.3661 56.0659 58.3661 52.0639V51.6965C58.3661 50.6332 57.4961 49.7632 56.4328 49.7632H54.7508C52.8948 49.7632 51.1161 48.6225 50.6328 46.8245C50.2268 45.3552 50.7101 43.9439 51.6768 42.9965C52.3921 42.2619 53.3781 41.8365 54.4608 41.8365ZM43.8661 41.4499H30.3328C29.5401 41.4499 28.8828 40.7925 28.8828 39.9999C28.8828 39.2072 29.5401 38.5499 30.3328 38.5499H43.8661C44.6588 38.5499 45.3161 39.2072 45.3161 39.9999C45.3161 40.7925 44.6588 41.4499 43.8661 41.4499Z" fill="url(#paint3_linear_206_2306)"/>
<defs>
<linearGradient id="paint0_linear_206_2306" x1="40" y1="0" x2="40" y2="80" gradientUnits="userSpaceOnUse">
<stop stop-color="#34C796"/>
<stop offset="1" stop-color="#0B7A55"/>
</linearGradient>
<linearGradient id="paint1_linear_206_2306" x1="33.5711" y1="20.7627" x2="33.5711" y2="39.052" gradientUnits="userSpaceOnUse">
<stop stop-color="#34C796"/>
<stop offset="1" stop-color="#0B7A55"/>
</linearGradient>
<linearGradient id="paint2_linear_206_2306" x1="55.462" y1="43.8662" x2="55.462" y2="47.7329" gradientUnits="userSpaceOnUse">
<stop stop-color="#34C796"/>
<stop offset="1" stop-color="#0B7A55"/>
</linearGradient>
<linearGradient id="paint3_linear_206_2306" x1="39.9995" y1="31.7832" x2="39.9995" y2="59.3332" gradientUnits="userSpaceOnUse">
<stop stop-color="#34C796"/>
<stop offset="1" stop-color="#0B7A55"/>
</linearGradient>
</defs>
</svg>
